azure-patterns/svg-updates-dark.svg

<svg xmlns="http://www.w3.org/2000/svg" viewBox="0 0 48 48"><path fill="none" d="M0 0h48v48H0z"/><path fill-rule="evenodd" clip-rule="evenodd" d="M0 48h48V4.5H0V48zm6.75-30.75h4.5v-4.5h-4.5v4.5zm19.5 7.5h-4.5v-4.5h4.5v4.5zm-12 7.5h4.5v-4.5h-4.5v4.5zm19.5 7.5h-4.5v-4.5h4.5v4.5z" fill="#303030"/><path fill-rule="evenodd" clip-rule="evenodd" d="M0 4.5h48V1a1 1 0 0 0-1-1H1a1 1 0 0 0-1 1v3.5zM14.25 17.25h4.5v-4.5h-4.5v4.5zM21.75 17.25h4.5v-4.5h-4.5v4.5zM29.25 17.25h4.5v-4.5h-4.5v4.5zM6.75 24.75h4.5v-4.5h-4.5v4.5zM14.25 24.75h4.5v-4.5h-4.5v4.5zM29.25 24.75h4.5v-4.5h-4.5v4.5zM6.75 32.25h4.5v-4.5h-4.5v4.5zM21.75 32.25h4.5v-4.5h-4.5v4.5zM29.25 32.25h4.5v-4.5h-4.5v4.5zM6.75 39.75h4.5v-4.5h-4.5v4.5zM14.25 39.75h4.5v-4.5h-4.5v4.5zM21.75 39.75h4.5v-4.5h-4.5v4.5zM36.75 17.25h4.5v-4.5h-4.5v4.5zM36.75 24.75h4.5v-4.5h-4.5v4.5zM36.75 32.25h4.5v-4.5h-4.5v4.5zM36.75 39.75h4.5v-4.5h-4.5v4.5z" fill="#0078D4"/></svg>

<svg xmlns="http://www.w3.org/2000/svg" viewBox="0 0 48 48">
                                
                            
  <rect width="48" height="48" fill="black" fill-opacity="0"></rect>
  <path fill-rule="evenodd" clip-rule="evenodd" d="M0 48H48V4.5H0V48ZM6.75 17.25H11.25V12.75H6.75V17.25ZM26.25 24.75H21.75V20.25H26.25V24.75ZM14.25 32.25H18.75V27.75H14.25V32.25ZM33.75 39.75H29.25V35.25H33.75V39.75Z" fill="#303030"></path>
  <path fill-rule="evenodd" clip-rule="evenodd" d="M0 4.5H48V1C48 0.447715 47.5523 0 47 0H0.999999C0.447714 0 0 0.447715 0 1V4.5Z" fill="#0078D4"></path>
  <path fill-rule="evenodd" clip-rule="evenodd" d="M14.25 17.25H18.75V12.75H14.25V17.25Z" fill="#0078D4"></path>
  <path fill-rule="evenodd" clip-rule="evenodd" d="M21.75 17.25H26.25V12.75H21.75V17.25Z" fill="#0078D4"></path>
  <path fill-rule="evenodd" clip-rule="evenodd" d="M29.25 17.25H33.75V12.75H29.25V17.25Z" fill="#0078D4"></path>
  <path fill-rule="evenodd" clip-rule="evenodd" d="M6.75 24.75H11.25V20.25H6.75V24.75Z" fill="#0078D4"></path>
  <path fill-rule="evenodd" clip-rule="evenodd" d="M14.25 24.75H18.75V20.25H14.25V24.75Z" fill="#0078D4"></path>
  <path fill-rule="evenodd" clip-rule="evenodd" d="M29.25 24.75H33.75V20.25H29.25V24.75Z" fill="#0078D4"></path>
  <path fill-rule="evenodd" clip-rule="evenodd" d="M6.75 32.25H11.25V27.75H6.75V32.25Z" fill="#0078D4"></path>
  <path fill-rule="evenodd" clip-rule="evenodd" d="M21.75 32.25H26.25V27.75H21.75V32.25Z" fill="#0078D4"></path>
  <path fill-rule="evenodd" clip-rule="evenodd" d="M29.25 32.25H33.75V27.75H29.25V32.25Z" fill="#0078D4"></path>
  <path fill-rule="evenodd" clip-rule="evenodd" d="M6.75 39.75H11.25V35.25H6.75V39.75Z" fill="#0078D4"></path>
  <path fill-rule="evenodd" clip-rule="evenodd" d="M14.25 39.75H18.75V35.25H14.25V39.75Z" fill="#0078D4"></path>
  <path fill-rule="evenodd" clip-rule="evenodd" d="M21.75 39.75H26.25V35.25H21.75V39.75Z" fill="#0078D4"></path>
  <path fill-rule="evenodd" clip-rule="evenodd" d="M36.75 17.25H41.25V12.75H36.75V17.25Z" fill="#0078D4"></path>
  <path fill-rule="evenodd" clip-rule="evenodd" d="M36.75 24.75H41.25V20.25H36.75V24.75Z" fill="#0078D4"></path>
  <path fill-rule="evenodd" clip-rule="evenodd" d="M36.75 32.25H41.25V27.75H36.75V32.25Z" fill="#0078D4"></path>
  <path fill-rule="evenodd" clip-rule="evenodd" d="M36.75 39.75H41.25V35.25H36.75V39.75Z" fill="#0078D4"></path>
</svg>
